actions/symbolic/edit-clear-all-symbolic-rtl.svg

<svg viewBox="0 0 16 16" xmlns="http://www.w3.org/2000/svg"><path d="m10.000388 4.1 3.528516 3.440628.471096.459372-.471096.459378-3.528516 3.440622h-6.167574-.932814-.3-.3c-.1662 0-.3-.1338-.3-.3v-7.2c0-.1662.1338-.3.3-.3h.6.932814zm-1.660542 1.95-1.339458 1.3066384-1.340622-1.3066384-.659766.6433616 1.339452 1.3066384-1.339452 1.306638.659766.643362 1.340622-1.306638 1.339458 1.306638.659766-.643362-1.339458-1.306638 1.339458-1.3066384z" fill="#bebebe"/></svg>

<?xml version="1.0" encoding="UTF-8" standalone="no"?>
<svg
   xmlns:dc="http://purl.org/dc/elements/1.1/"
   xmlns:cc="http://creativecommons.org/ns#"
   xmlns:rdf="http://www.w3.org/1999/02/22-rdf-syntax-ns#"
   xmlns:svg="http://www.w3.org/2000/svg"
   xmlns="http://www.w3.org/2000/svg"
   xmlns:sodipodi="http://sodipodi.sourceforge.net/DTD/sodipodi-0.dtd"
   xmlns:inkscape="http://www.inkscape.org/namespaces/inkscape"
   viewBox="0 0 16 16"
   id="svg2"
   version="1.1"
   inkscape:version="0.91 r13725"
   sodipodi:docname="edit-clear-all-symbolic.svg">
  <metadata
     id="metadata10">
    <rdf:RDF>
      <cc:Work
         rdf:about="">
        <dc:format>image/svg+xml</dc:format>
        <dc:type
           rdf:resource="http://purl.org/dc/dcmitype/StillImage" />
      </cc:Work>
    </rdf:RDF>
  </metadata>
  <sodipodi:namedview
     pagecolor="#ffffff"
     bordercolor="#666666"
     borderopacity="1"
     objecttolerance="10"
     gridtolerance="10"
     guidetolerance="10"
     inkscape:pageopacity="0"
     inkscape:pageshadow="2"
     inkscape:window-width="640"
     inkscape:window-height="480"
     id="namedview8"
     showgrid="false"
     inkscape:zoom="41.1875"
     inkscape:cx="3.6783005"
     inkscape:cy="8"
     inkscape:current-layer="svg2" />
  <defs
     id="defs3051">
    <style
       type="text/css"
       id="current-color-scheme">
      .ColorScheme-Text {
        color:#bebebe;
      }
      </style>
  </defs>
  <path
     style="color:#bebebe;fill:currentColor;fill-opacity:1;stroke:none"
     class="ColorScheme-Text"
     d="M 10.000388,4.1 13.528904,7.540628 14,8 13.528904,8.459378 10.000388,11.9 3.832814,11.9 2.9,11.9 l -0.3,0 -0.3,0 C 2.1338,11.9 2,11.7662 2,11.6 L 2,4.4 C 2,4.2338 2.1338,4.1 2.3,4.1 l 0.6,0 0.932814,0 6.167574,0 z M 8.339846,6.05 7.000388,7.3566384 5.659766,6.05 5,6.6933616 6.339452,8 5,9.306638 5.659766,9.95 7.000388,8.643362 8.339846,9.95 8.999612,9.306638 7.660154,8 8.999612,6.6933616 8.339846,6.05 Z"
     id="path6"
     inkscape:connector-curvature="0" />
</svg>
